img/subscribe-icon.svg

<svg width="45" height="50" viewBox="0 0 45 50" fill="none" xmlns="http://www.w3.org/2000/svg">
<path d="M22.6528 27.2879C22.5603 27.2679 22.4654 27.2643 22.3717 27.2783C21.4326 27.169 20.7242 26.3745 20.7226 25.4294C20.7226 24.9765 20.3553 24.6092 19.9024 24.6092C19.4495 24.6092 19.0823 24.9765 19.0823 25.4294C19.0847 27.0076 20.1403 28.39 21.662 28.8077V29.6278C21.662 30.0807 22.0293 30.448 22.4822 30.448C22.9351 30.448 23.3023 30.0807 23.3023 29.6278V28.8573C25.0588 28.4897 26.2525 26.8538 26.0679 25.069C25.8829 23.2841 24.3792 21.9277 22.5847 21.9273C21.5563 21.9273 20.7226 21.0936 20.7226 20.0652C20.7226 19.0368 21.5563 18.2031 22.5847 18.2031C23.6131 18.2031 24.4469 19.0368 24.4469 20.0652C24.4469 20.5181 24.8141 20.8853 25.267 20.8853C25.7199 20.8853 26.0871 20.5181 26.0871 20.0652C26.0847 18.4081 24.9238 16.9788 23.3023 16.6369V15.8904C23.3023 15.4375 22.9351 15.0702 22.4822 15.0702C22.0293 15.0702 21.662 15.4375 21.662 15.8904V16.6869C19.9697 17.149 18.8804 18.7921 19.1135 20.5309C19.3466 22.2697 20.8303 23.5676 22.5847 23.5672C23.5995 23.5672 24.4272 24.3798 24.4457 25.3941C24.4645 26.4085 23.6668 27.2511 22.6528 27.2879Z" fill="black"/>
<path d="M10.6918 22.8105C10.6918 29.3789 16.0163 34.7034 22.5847 34.7034C29.1531 34.7034 34.4776 29.3789 34.4776 22.8105C34.4776 16.2421 29.1531 10.9176 22.5847 10.9176C16.0195 10.9248 10.6994 16.2453 10.6918 22.8105ZM22.5847 12.5579C28.2472 12.5579 32.8373 17.148 32.8373 22.8105C32.8373 28.473 28.2472 33.0631 22.5847 33.0631C16.9222 33.0631 12.3321 28.473 12.3321 22.8105C12.3385 17.1508 16.925 12.5643 22.5847 12.5579Z" fill="black"/>
<path d="M38.5206 36.7252L32.096 39.7607C31.2089 38.1108 29.5074 37.0607 27.6348 37.0079L21.704 36.8449C20.7649 36.8181 19.8435 36.5802 19.0085 36.1489L18.405 35.8361C15.315 34.2255 11.632 34.2295 8.54525 35.8465L8.58289 34.4794C8.59531 34.0265 8.2385 33.6492 7.78558 33.6368L1.28209 33.4578C0.829168 33.4454 0.452334 33.8022 0.43992 34.2551L0.0470673 48.5267C0.0346531 48.9797 0.391464 49.3569 0.844385 49.3693L7.34787 49.5483H7.3703C7.81481 49.5483 8.17843 49.1947 8.19044 48.7506L8.20926 48.0678L9.89881 47.1632C10.562 46.8064 11.3373 46.7215 12.0617 46.9265L22.1509 49.7582C22.1685 49.7634 22.1862 49.7674 22.2042 49.7714C22.9334 49.924 23.6767 50.0004 24.4215 50C25.9993 50.0008 27.5587 49.6609 28.9928 49.0025C29.028 48.9865 29.0621 48.9677 29.0945 48.9464L43.7229 39.4843C44.0874 39.2485 44.2051 38.7699 43.9917 38.3919C42.9056 36.4649 40.4968 35.7308 38.5206 36.7252ZM1.70938 47.7523L2.05698 35.1201L6.92058 35.2539L6.57298 47.8864L1.70938 47.7523ZM28.2539 47.5376C26.4723 48.3417 24.4824 48.5636 22.5674 48.1723L12.5054 45.3479C11.3729 45.0279 10.1607 45.1605 9.12472 45.7175L8.26132 46.18L8.49239 37.7812C11.2283 35.9615 14.7372 35.7745 17.6509 37.2926L18.2544 37.6054C19.3092 38.15 20.4726 38.4503 21.6591 38.4848L27.5904 38.6478C29.2563 38.6958 30.6711 39.882 31.0091 41.5143L22.1745 41.2704C21.7216 41.258 21.3448 41.6152 21.332 42.0677C21.3196 42.5206 21.6768 42.8979 22.1293 42.9103L31.8789 43.1786H31.9017C32.3459 43.1782 32.7091 42.8246 32.7211 42.3809C32.7311 42.0245 32.7047 41.6676 32.6418 41.3168L39.2314 38.2033C39.2378 38.2005 39.2442 38.1973 39.2506 38.194C40.1853 37.7211 41.3154 37.8793 42.0843 38.5909L28.2539 47.5376Z" fill="black"/>
<path d="M29.5557 8.61161V4.92096C29.5557 4.46804 29.1885 4.10081 28.7356 4.10081C28.2826 4.10081 27.9154 4.46804 27.9154 4.92096V8.61161C27.9154 9.06453 28.2826 9.43175 28.7356 9.43175C29.1885 9.43175 29.5557 9.06453 29.5557 8.61161Z" fill="black"/>
<path d="M17.2537 8.61161V4.92096C17.2537 4.46804 16.8865 4.10081 16.4336 4.10081C15.9806 4.10081 15.6134 4.46804 15.6134 4.92096V8.61161C15.6134 9.06453 15.9806 9.43175 16.4336 9.43175C16.8865 9.43175 17.2537 9.06453 17.2537 8.61161Z" fill="black"/>
<path d="M23.4049 8.61152V0.820144C23.4049 0.367223 23.0376 0 22.5847 0C22.1318 0 21.7646 0.367223 21.7646 0.820144V8.61152C21.7646 9.06444 22.1318 9.43166 22.5847 9.43166C23.0376 9.43166 23.4049 9.06444 23.4049 8.61152Z" fill="black"/>
</svg>

<svg width="45" height="50" fill="none" xmlns="http://www.w3.org/2000/svg"><path d="M22.653 27.288a.781.781 0 00-.281-.01 1.865 1.865 0 01-1.65-1.849.82.82 0 00-1.64 0 3.509 3.509 0 002.58 3.379v.82a.82.82 0 001.64 0v-.77a3.502 3.502 0 00-.717-6.93 1.862 1.862 0 111.862-1.863.82.82 0 001.64 0 3.509 3.509 0 00-2.785-3.428v-.747a.82.82 0 00-1.64 0v.797a3.502 3.502 0 00.923 6.88 1.861 1.861 0 01.068 3.72z" fill="#000"/><path d="M10.692 22.81c0 6.569 5.324 11.893 11.893 11.893 6.568 0 11.893-5.324 11.893-11.893 0-6.568-5.325-11.892-11.893-11.892-6.566.007-11.886 5.327-11.893 11.893zm11.893-10.252c5.662 0 10.252 4.59 10.252 10.253 0 5.662-4.59 10.252-10.252 10.252-5.663 0-10.253-4.59-10.253-10.253.006-5.66 4.593-10.246 10.253-10.252z" fill="#000"/><path d="M38.52 36.725l-6.424 3.036a5.233 5.233 0 00-4.461-2.753l-5.931-.163a6.263 6.263 0 01-2.695-.696l-.604-.313a10.645 10.645 0 00-9.86.01l.038-1.367a.82.82 0 00-.797-.842l-6.504-.18a.82.82 0 00-.842.798L.047 48.527a.82.82 0 00.797.842l6.504.18h.022a.82.82 0 00.82-.798l.02-.683 1.689-.905a2.898 2.898 0 012.163-.236l10.089 2.831c.018.005.035.01.053.013a10.942 10.942 0 006.789-.769.751.751 0 00.101-.056l14.629-9.462a.82.82 0 00.269-1.092 4.143 4.143 0 00-5.471-1.667zM1.71 47.752l.347-12.632 4.864.134-.348 12.632-4.864-.134zm26.544-.214a9.298 9.298 0 01-5.687.634l-10.062-2.824a4.535 4.535 0 00-3.38.37l-.864.462.231-8.399a9.015 9.015 0 019.159-.488l.603.312a7.923 7.923 0 003.405.88l5.931.163a3.597 3.597 0 013.42 2.866l-8.836-.244a.82.82 0 00-.045 1.64l9.75.269h.023a.82.82 0 00.82-.798 5.205 5.205 0 00-.08-1.064l6.59-3.114a2.506 2.506 0 012.853.388l-13.831 8.947zm1.302-38.926V4.92a.82.82 0 00-1.64 0v3.69a.82.82 0 001.64 0zm-12.302 0V4.92a.82.82 0 00-1.64 0v3.69a.82.82 0 001.64 0zm6.151 0V.82a.82.82 0 00-1.64 0v7.792a.82.82 0 001.64 0z" fill="#000"/></svg>
